X:620
T:Reel 620
M:4/4
K:Gmaj
L:1/8
B2Ac BGGA| (3BAG Bd cAAg|BcAB G2GA|Bdef gedc|B2AG BGA2| (3BAG AG DGG2|BGAF G2dc|dBAc BGG2| (3Bdd gd edgd| (3Bcd dB  (3cBc Ac| (3Bcd ge d2dB|cAdB BGG2| (3Bcd gd d2dd| (3Bcd gd eAA2|bc'ba gfgd| (3efg dc BGG2|
